!!!OTL: Schlof Kennchen,schlof, S. 9
!!!id: L0001
**kern
*clefG2
*k[b-]
*B-:
{8b-
=1
8b-
4dd
8cc
=2yy
4cc
=3
4b-
8r
8f
=4
8dd
8dd
8cc
8cc
=5
4b-}
8r
=6
{8f
=7
8dd
8dd
8cc
8cc
=8
8b-
8b-
4ff}
=9
{8dd
8dd
8cc
8cc
=10
8b-
8b-
4ff
=11
4dd
8cc
8cc
=12
4b-}
4r
==
*-
!!!minrhy: 8
!!!meters: 2/4 ]  ZZ[3
!!!cut: Schlof Kennchen,schlof, S. 9
!!!reg: Luxemburg
!!!trd: Die luxemburger Volkslieder &auml;lterer Zeit, Luxemburg 1904 posth.
!!!rhy1:   X_XX_  X_0X  XXXX  X_0
!!!rhy2: X  XXXX  XXX_
!!!key: L0001  08 Bb 2/4 ]  ZZ[3
!!!mod: VIERTONSKALA ]  AMBITUS[8
!!!kad: 151
!!!akz: 131_31_3131_
!!!fot: 'a__b__bv_
!!!for: 'a__b__bw_
!!!fok: '\__~a_\__
!! PHRAS[VORWIEGEND AUFTAKTIG]
!!!fkt: Kinderlied/Schlaflied
!! FONTAINE, Ed.:
!! PR[20] 2K[0] 2G[8] 3K[8] 3G[8] 4A[4] 4Ü[0] 5A[4] 6K[0] 6G[0]
!! 7K[0] 7G[0] 8A[0] MEHR[0] SI[32] ABS[25] SR[8] SP[24]
!! ST[3] 2k[0] 2g[32] 3k[16] 3g[0] 4d[0] 4ü[0] 5d[0] 6k[0] 6g[0]
!! 7k[0] 7g[0] 8d[0] mehr[0] si[48] dm[-16] sr[32] sp[16]
!! 1F[77] 2F[23] 3F[0] 4F[0] LF[0] 2P[0] 3P[0] 4P[0] TRI[0] DF[2] AB[26]
!! TF[0] U3K[0] U3[0] U4[0] U4Ü[0] U5[0] U6K[0] U6[0] U7K[0] U7[0]
!! N1[12] N2K[0] N2[27] N3K[0] N3[46] N4[0] N4Ü[0] N5[15] N6K[0] N6[0]
!!!n7k: 0] N7[0] O1[0] O2K[0] O2[0] O3K[0] O3[0] HÖ[0
!!!RNB: symbol: &auml;      = a umlaut  (UTF-8: Å„)
